X:32
T:Sacramento (a)
M:2/4
L:1/16
Q:1/4=90
K:Eb
B4|\
B2B2 G2B2|c2B2 G4  |G2F6     |G2 F4 B2|
B2B2 G2B2|c2B2 G4  |G2F2 G2F2|E8      |
E4   G2B2|e6     d2|c3d  e2c2|B6    e2|
ccc2 c2B2|c2B2 G2EF|G2GG G3F |F2 E2  ||
